X: 10742
M: 3/4
L: 1/8
K: F
vC2 uF2 |\
(d4 B2) | (G4 E2) | (.F3 .A) c2 | z2 u(=BcBc) | (.e3 .e) e2- | e2 d2 c2 | (.a3 .f) f2 | z2 u(fgfe) |
(d4 B2) | (G4 E2) | {G}FEFGAB | cdefga | (.b3 .d) d2 | (.e3 .c) c2 | (.f3 .f) f2- | f2 :|


